src/lib/packages/icons/src/assets/line/caret-down-circle.svg

<svg width="24" height="24" viewBox="0 0 24 24" fill="none" xmlns="http://www.w3.org/2000/svg">
<path d="M12 1.25C6.072 1.25 1.25 6.072 1.25 12C1.25 17.928 6.072 22.75 12 22.75C17.928 22.75 22.75 17.928 22.75 12C22.75 6.072 17.928 1.25 12 1.25ZM12 21.25C6.899 21.25 2.75 17.101 2.75 12C2.75 6.899 6.899 2.75 12 2.75C17.101 2.75 21.25 6.899 21.25 12C21.25 17.101 17.101 21.25 12 21.25ZM15.0991 9.08301H8.9021C8.2521 9.08301 7.67803 9.44811 7.40503 10.0371C7.13403 10.6221 7.22292 11.2919 7.63892 11.7849L10.5591 15.248C10.9181 15.673 11.444 15.916 12 15.916C12.556 15.916 13.0819 15.672 13.4409 15.248L16.3611 11.7859C16.7771 11.2919 16.867 10.6221 16.595 10.0371C16.322 9.44911 15.7491 9.08301 15.0991 9.08301ZM15.2151 10.8181L12.2949 14.28C12.1939 14.398 12.067 14.416 12 14.416C11.933 14.416 11.8051 14.398 11.7051 14.28L8.78491 10.8169C8.76991 10.7999 8.72692 10.749 8.76392 10.668C8.78992 10.611 8.83588 10.583 8.90088 10.583H15.0979C15.1619 10.583 15.2081 10.612 15.2351 10.668C15.2721 10.75 15.2291 10.8011 15.2151 10.8181Z" fill="currentColor"/>
</svg>

<svg xmlns="http://www.w3.org/2000/svg" width="24" height="24" fill="none"><path fill="currentColor" d="M12 1.25C6.072 1.25 1.25 6.072 1.25 12S6.072 22.75 12 22.75 22.75 17.928 22.75 12 17.928 1.25 12 1.25Zm0 20c-5.101 0-9.25-4.149-9.25-9.25S6.899 2.75 12 2.75s9.25 4.149 9.25 9.25-4.149 9.25-9.25 9.25Zm3.1-12.167H8.901c-.65 0-1.224.365-1.497.954a1.625 1.625 0 0 0 .234 1.748l2.92 3.463a1.886 1.886 0 0 0 2.882 0l2.92-3.462a1.625 1.625 0 0 0 .234-1.749 1.633 1.633 0 0 0-1.496-.954Zm.115 1.735-2.92 3.462a.384.384 0 0 1-.295.136.383.383 0 0 1-.295-.136l-2.92-3.463a.128.128 0 0 1-.021-.149c.026-.057.072-.085.137-.085h6.197c.064 0 .11.029.137.085.037.082-.006.133-.02.15Z"/></svg>
